X:1
T:BWV 826 Capriccio Strings Arrangement
T:BWV 829 Gigue Strings Arrangement
T:J. S. Bach
C:J. S. Bach
%%score 1 2 3
L:1/8
M:6/8
K:G
V:1 treble nm="Violin"
V:2 alto nm="Viola"
V:3 bass nm="Violoncello"
V:1
 z | z6 | z2 z z2 g | b>ge/^c/ ad z | g>e^c/A/ f/e/f/a/d/f/ | g/f/g/b/e/g/ a/g/a/c'/f/a/ | %6
 b/a/c'/b/a/g/ f/e/f/g/e/f/ | g2 c' f g2- | gfa def | g z z z2 z | z2 z ef^g | a z z z2 z | %12
 z2 z fga- | a g2- g f2- | f e2- edf- | fe z z2 e- | ed z z2 d- | dc z z2 c- | cBd- d^ca- | %19
 ag z ^cAd- | d^c z d3- | d/c/d/e/B/d/ c3- | c/B/c/d/A/c/ B/A/B/c/d/B/ | e>cA/F/ dG z | %24
 c>AF/D/ BE z | A>FD/B,/ G^C z | z/ E/F/A/D/F/ G/F/G/B/E/G/ | A/G/A/c/F/A/ B/A/B/^c/d/B/ | %28
 ^cAe- edf- | feg- gfa | b>ge/^c/ ad z | g>e^c/A/ fd=c | BeG- GF :: z | z6 | z6 | z6 | z6 | %38
 z2 z z2 A | DG z z/ G/F/E/F/D/ | B,/^C<PCB,/4C/4 D/E/D/C/D/B,/ | ^C/^D<PDC/4D/4 E/B/A/G/A/F/ | %42
 GP^G3/2F/4G/4 A/e/d/c/d/B/ | c/a/g/=f/g/e/ f^GA | z/ c'/b/a/b/d/ c/b/a/^g/a/c/ | %45
 B/a/g/f/g/B/ A/g/f/e/f/a/ | ^d/e<Ped/4e/4 f/e/f/a/g/f/ | ea z z/ a/g/f/g/e/ | %48
 ^c/^d<Pdc/4d/4 e/d/e/g/f/a/ | g/f/g/b/e/^g/ a/g/a/c'/f/a/ | b/a/b/d'/^g/b/ c'/b/a/g/a/e/ | %51
 =f>d'b/^g/ ea z | d>b^g/e/ cea | dg z z/ g/f/e/f/d/ | B/^c<PcB/4c/4 dPB3/2A/4B/4 | %55
 c/d/c/B/c/A/ B/A/B/c/d | Gc z z/ c/B/A/B/G/ | E/F<PFE/4F/4 Gde | Aef Bfg | c3- c/d/c/B/c/A/ | %60
 B ^c2 dAd- | d/B/Gc FDG- | G/4F/4E/D z z/ C/D/=F/E/G/ | =F/G/F/E/F/D/ E/A/G/^F/G/E/ | %64
 F/B/A/G/A/F/ GA z | z/ D/G/B/A/F/ (FG) :| %66
V:2
 d | e>cA/F/ dG z | c>AF/D/ B/A/B/c/B/A/ | GG,G- G/E/F/A/G/F/ | E^CA, DAB | EBc Fcd | Gec dAd- | %7
 d c2- c/A/B/d/c/B/ | A3- AGA | B/A/B/d/G/B/ c/B/c/e/A/c/ | d/c/d/=f/B/d/ eAB | %11
 c/B/c/e/A/c/ d/c/d/f/B/d/ | e/d/e/g/^c/e/ fBc | d/^c/d/e/B/d/ c/B/c/d/A/=c/ | B/A/B/c/G/B/ A2 z | %15
 z2 d- d^c z | z2 c- cB z | z2 B- BA z | z2 F- FEA | B>GE/^C/ AD z | G>E^C/A,/ F/E/F/A/D/F/ | %21
 G3- G/F/G/B/E/G/ | A3 G3- | G/G,/ C2- C/A,/ B,2- | B,/G,/ A,2- A,/F,/ G,2- | %25
 G,/E,/ F,2- F,/D,/E, z | z6 | z6 | z2 z z2 d- | d^ce- edf- | f/d/eG- G/E/F/A/D/F/ | B^c z d A2- | %32
 A<GE- ED :: z | z6 | z2 z z2 D | G,C z z/ C/B,/A,/B,/G,/ | E,/F,<PF,E,/4F,/4 G,P^G,3/2F,/4G,/4 | %38
 A,/B,/A,/G,/A,/F,/ G,/B,/A,/B,/C/A,/ | B,/A,/B,/^C/D/B,/ CA,D | %40
 z/ A,/G,/F,/G,/E,/ F,/^G,<PG,F,/4G,/4 | A, F,2 E, z z | z/ E/D/C/D/B,/ CDE | %43
 A,D z z/ D/C/B,/C/A,/ | F,/^G,<PG,F,/4G,/4 A,CE | ^DBE c/B/A/G/A/F/ | B/A/G/F/G/E/ ^DFB- | %47
 BAc ^DB,E- | E F2 B, z z | z6 | z2 z z2 z/ e/ | Ad z z/ d/c/B/c/A/ | F/^G<PGF/4G/4 A/G/A/B/c/A/ | %53
 B/A/B/^c/d/B/ cAd | z/ A/G/F/G/E/ F/G/=F/E/F/D/ | E/F<PFE/4F/4 G2- G/F/- | F/EA/G/A/ FDG,- | %57
 G, A,2 D, z z | z6 | z/ B/A/G/A/E/ F z z | z/ A/G/F/G/E/ F2 D | E>CA,/F,/ DG, z | C>A,F,/D,/ B,3 | %63
 CD z G,E, z | A,F, z z/ D/C/B,/C/A,/ | B,<D-D (CB,) :| %66
V:3
 z | z6 | z6 | z6 | z6 | z6 | z2 z z2 D | E>CA,/F,/ DG, z | C>A,F,/D,/ B,/A,/B,/C/B,/A,/ | %9
 G,DE A,E=F | B,=FG C/B,/C/D/C/B,/ | A,EF B,FG | ^CGA D/C/D/E/D/C/ | B,>G,E,/^C,/ A,D, z | %14
 G,>E,^C,/A,,/ F,/E,/F,/A,/D,/F,/ | ^G,/F,/G,/B,/E,/G,/ ^A,/G,/A,/^C/F,/A,/ | %16
 B,/^A,/B,/D/F,/=A,/ ^G,/F,/G,/B,/E,/G,/ | A,/G,/A,/C/E,/G,/ F,/E,/F,/A,/D,/F,/ | %18
 G,/F,/G,/A,/B,/G,/ A,/G,/A,/B,/^C/A,/ | D/B,/EG,- G,/E,/F,/A,/G,/F,/ | %20
 E,/A,,/A,/G,/F,/E,/ D,A,B, | E,B,,G,, E,,B,C | F,D,E, =F,E,D, | C,>A,F,/A,/ B,,>G,E,/G,/ | %24
 A,,>F,D,/F,/ G,,>E,^C,/E,/ | F,,>D,B,,/D,/ E,,>^C,A,,/C,/ | D,,A,,B,, E,,B,,C, | F,,C,D, G,,D,E, | %28
 A,,/F,/G,/A,/E,/G,/ F,/E,/F,/A,/D,/F,/ | E,/D,/E,/G,/^C,/E,/ D,/C,/D,/F,/B,,/D,/ | %30
 G,,G, z z2 F,- | F,/D,/E,/G,/A,,/^C,/ D,/E,/F,/A,/D,/F,/ | G,/E,/^C,/E,/A,,/C,/ D,,D, :: A, | %34
 D,G, z z/ G,/F,/E,/F,/D,/ | B,,/^C,<PC,B,,/4C,/4 D,/C,/D,/E,/F,/D,/ | E,/D,/E,/F,/G,/E,/ F,D,G, | %37
 z/ D,/C,/B,,/C,/A,,/ B,,/E,/D,/^C,/D,/B,,/ | ^C,P^D,3/2C,/4D,/4 E,/F,<PF,E,/4F,/4 | %39
 G,E, z A,D, z | G,,A,, z D,B,, z | z/ B,,/A,,/G,,/A,,/F,,/ G,,A,,B,, | E,, z z z2 z | z6 | z6 | %45
 z6 | z2 z z2 B, | C>A,F,/^D,/ B,E, z | A,>F,^D,/B,,/ G,/F,/G,/B,/D,/F,/ | E,B,C F,CD | %50
 ^G,DE A,B,C- | CB,A, ^G,A, z | z6 | z6 | z6 | z2 z z2 D, | E,>C,A,,/F,,/ D,G,, z | %57
 C,>A,,F,,/D,,/ B,,/A,,/B,,/D,/G,,/B,,/ | C,/B,,/C,/E,/A,,/C,/ D,/C,/D,/F,/B,,/D,/ | %59
 E,C,A,, D,F,D, | G,E,A, D,/E,/D,/C,/B,,/A,,/ | G,,C, z z/ C,/B,,/A,,/B,,/G,,/ | %62
 E,,/F,,<PF,,E,,/4F,,/4 G,,G,,G,, | A,,/B,,<PB,,A,,/4B,,/4 C,P^C,3/2D,/4E,/4 | %64
 D,P^D,3/2^C,/4D,/4 E,/F,<PF,E,/4F,/4 | G,B,,D, G,,2 :| %66

